X:152
T:Spanish Ladies (a)
M:3/4
L:1/4
K:G
D|\
G G G|G A B|c A G|F D D|
A A A|A B c|c B A|d2  B|
d d d|B G A/B/|c A G|F D D|
B B B|c A F|D E F|G2||
